X: 151112
T: SWISS WALTZ
R: Waltz.
%R: waltz
B: James Kerr "Merry Melodies" v.1 p.51 s.1 #12
Z: 2016 John Chambers <jc:trillian.mit.edu>
N: The slightly-different rhythm in bar 5 is probably a typo; not fixed.
M: 3/4
L: 1/8
K: D
  (uA>f) |\
d2d2(A>f) | d2d2(A>f) | e2a2a2 | f2d2(A>f) |\
d2d2(Af) | d2d2(A>f) | e2a2a2 | d4 :|
|: (e>f) |\
(gf)efge | (fe)defd | (ed)cdec | (de)fgaf |\
(gf)efge | (fe)defd | (ed)cdec | d4 :|

%%sep 1 1 500
%%sep 1 1 500

